X: 08
T: DANCING HEARTS
%R: strathspey
B: Button & Whitaker "Twelve Elegant New Dances for the Year 1810", London 1810
F: http://imslp.org/wiki/Button_and_Whitaker's_Elegant_New_Dances_for_1810_(Various)
Z: 2018-6-25  John Chambers <jc:trillian.mit.edu>
M: C
L: 1/8
K: Bb
% - - - - - - - - - - - - - - - - - - - - - - - - - - - - -
% Voice 1 formatted for compactness.
V: 1 staves=2
f<e | f<dd<c c<B f<e | e<dd<c c<Bg<f | f<ee<d d<cc<A | A<cB<G F2f<e | e<dd<c c<Bf<e |
e<dd<f b2b<g | f<de<c d<Bc<A | B<dB<d B2 :: A<B | c<de<f g2f<e | d<fd<f b2b<g | f<df<d b<fe<d |
c<AB<G F2f<e | e<dd<c B2f<e | e<df<_a g2b<g | f<de<c d<Bc<A | B<dd<f B2 :|
% - - - - - - - - - - - - - - - - - - - - - - - - - - - - -
% Voice 2 preserves the original staff breaks.
V: 2 clef=bass middle=d
z2 |\
[f2B2][e2B2] [d2B2]z2 | [f2B2][e2B2] [d2B2]z2 | c2d2 e2=e2 | f2c2 F2z2 | [f2B2][e2B2] [d2B2]z2 |
[f2B2][f2B2] [f2d2]e2 | f2f2 F2F2 | B2b2 B2 :: z2 | f2f2 a2a2 | b2b2 d2z2 | B2b2 d2e2 |
f2c2 F2z2 | [f2B2][e2B2] [d2B2]z2 | B2B2 e2z2 | f2f2 F2F2 | B2b2 B2 :|
% - - - - - - - - - - Dance description - - - - - - - - - -
%%begintext align
%% Hey contrary sides, then to your own,
%% down the mid: up again hands 4 at bottom
%% & right & left at top.
%%endtext
% %center -------------------------
% %center Button & Whitaker "Twelve Elegant New Dances for the Year 1810"
